; generated by Slic3r 1.1.7 on 2014-11-16 at 23:24:19

; perimeters extrusion width = 0.40mm
; infill extrusion width = 0.53mm
; solid infill extrusion width = 0.53mm
; top infill extrusion width = 0.53mm

G21 ; set units to millimeters
M107
M104 S195 ; set temperature
; layer_height = 0.25
G21 ; set units to millimeters
G90 ; use absolute coordinates
G1 Z10 F200 ; lift nozzle
G1 X-85 Y0 F4000; Go to wait for warm position
T1
M116; Wait for all temperatures
G1 E4 F200
M109 S195 ; wait for temperature to be reached
G90 ; use absolute coordinates
G92 E0
M82 ; use absolute distances for extrusion
G1 F2700.000 E-4.00000
G92 E0
G1 Z0.250 F6000.000
G1 X-33.397 Y-21.828 F6000.000
G1 E4.00000 F2700.000
G1 X-27.059 Y-31.525 E4.48166 F1500.000
G1 X-25.604 Y-33.317 E4.57760
G1 X-25.494 Y-33.427 E4.58406
G1 X-23.226 Y-35.177 E4.70320
G1 X-17.346 Y-38.585 E4.98573
G1 X-16.269 Y-39.113 E5.03560
G1 X-2.401 Y-45.337 E5.66757
G1 X1.228 Y-46.279 E5.82347
G1 X5.047 Y-46.606 E5.98282
G1 X8.030 Y-46.462 E6.10699
G1 X10.869 Y-45.535 E6.23116 F1500.000
G1 X12.368 Y-44.663 E6.30325
G1 X41.377 Y-24.509 E7.77179
G1 X42.962 Y-23.051 E7.86135
G1 X43.399 Y-22.614 E7.88705
G1 X45.211 Y-20.239 E8.01122
G1 X46.040 Y-18.424 E8.09419
G1 X48.664 Y-10.994 E8.42181
G1 X49.275 Y-8.070 E8.54598
G1 X49.090 Y-5.089 E8.67015
G1 X48.115 Y-2.242 E8.79528
G1 X33.265 Y27.359 E10.17213
G1 X32.331 Y28.899 E10.24700
G1 X29.933 Y32.214 E10.41709
G1 X28.494 Y34.134 E10.51686
G1 X27.730 Y35.116 E10.56858
G1 X25.599 Y37.208 E10.69275
G1 X23.722 Y38.344 E10.78395
G1 X8.654 Y45.551 E11.47837
G1 X5.812 Y46.469 E11.60254
G1 X3.822 Y46.647 E11.68562
G1 X3.603 Y46.647 E11.69469
G1 X0.643 Y46.249 E11.81886
G1 X-1.066 Y45.627 E11.89446
G1 X-11.546 Y40.821 E12.37380
G1 X-13.542 Y39.642 E12.47020
G1 X-38.326 Y21.289 E13.75234
G1 X-39.580 Y20.208 E13.82120
G1 X-46.023 Y13.765 E14.20003
G1 X-47.835 Y11.390 E14.32420
G1 X-48.954 Y8.622 E14.44837
G1 X-49.302 Y5.655 E14.57254
G1 X-48.854 Y2.702 E14.69671
G1 X-47.479 Y-0.282 E14.83331
G1 X-33.430 Y-21.777 E15.90093
G1 X-33.095 Y-21.558 F6000.000
G1 X-26.724 Y-31.306 E16.38508 F1500.000
G1 X-25.322 Y-33.034 E16.47759
G1 X-25.212 Y-33.144 E16.48406
G1 X-23.024 Y-34.832 E16.59894
G1 X-17.168 Y-38.227 E16.88038
G1 X-16.105 Y-38.748 E16.92956
G1 X-2.238 Y-44.973 E17.56153
G1 X1.263 Y-45.880 E17.71187
G1 X5.081 Y-46.207 E17.87122
G1 X8.010 Y-46.059 E17.99314
G1 X10.791 Y-45.128 E18.11506 F1500.000
G1 X12.141 Y-44.334 E18.18017
G1 X41.108 Y-24.213 E19.64650
G1 X42.679 Y-22.768 E19.73527
G1 X43.117 Y-22.331 E19.76096
G1 X44.889 Y-19.995 E19.88289
G1 X45.663 Y-18.291 E19.96070
G1 X48.287 Y-10.860 E20.28831
G1 X48.879 Y-7.988 E20.41024
G1 X48.677 Y-5.063 E20.53216
G1 X47.757 Y-2.421 E20.64844
G1 X32.907 Y27.180 E22.02530
G1 X32.006 Y28.665 E22.09749
G1 X29.612 Y31.974 E22.26731
G1 X28.178 Y33.889 E22.36677
G1 X27.415 Y34.871 E22.41849
G1 X25.317 Y36.920 E22.54041
G1 X23.549 Y37.983 E22.62616
G1 X8.481 Y45.190 E23.32058
G1 X5.689 Y46.084 E23.44250
G1 X3.822 Y46.247 E23.52041
G1 X3.603 Y46.247 E23.52949
G1 X0.698 Y45.849 E23.65141
G1 X-0.899 Y45.264 E23.72211
G1 X-11.379 Y40.457 E24.20145
G1 X-13.304 Y39.320 E24.29440
G1 X-38.088 Y20.968 E25.57655
G1 X-39.298 Y19.925 E25.64295
G1 X-45.741 Y13.482 E26.02177
G1 X-47.513 Y11.146 E26.14369
G1 X-48.593 Y8.419 E26.26562
G1 X-48.898 Y5.503 E26.38754
G1 X-48.408 Y2.611 E26.50946
G1 X-47.144 Y-0.063 E26.63245
G1 X-33.128 Y-21.508 E27.69757
G1 X-32.793 Y-21.289 F6000.000
G1 X-26.389 Y-31.088 E28.18422 F1500.000
G1 X-25.039 Y-32.751 E28.27330
G1 X-24.929 Y-32.861 E28.27977
G1 X-22.822 Y-34.486 E28.39039
G1 X-16.989 Y-37.870 E28.67075
G1 X-15.942 Y-38.383 E28.71923
G1 X-2.074 Y-44.608 E29.35121
G1 X1.297 Y-45.482 E29.49597
G1 X5.116 Y-45.809 E29.65532
G1 X7.989 Y-45.656 E29.77496
G1 X11.913 Y-44.005 E29.95197 F1500.000
G1 X40.839 Y-23.917 E31.41609
G1 X42.397 Y-22.485 E31.50407
G1 X42.834 Y-22.048 E31.52976
G1 X44.567 Y-19.751 E31.64939
G1 X45.286 Y-18.158 E31.72208
G1 X47.910 Y-10.727 E32.04970
G1 X48.484 Y-7.907 E32.16933
G1 X48.263 Y-5.038 E32.28897
G1 X47.400 Y-2.601 E32.39649
G1 X32.550 Y27.001 E33.77334
G1 X31.682 Y28.430 E33.84286
G1 X29.292 Y31.735 E34.01241
G1 X27.863 Y33.643 E34.11155
G1 X27.099 Y34.625 E34.16327
G1 X25.035 Y36.630 E34.28290
G1 X23.377 Y37.622 E34.36324
G1 X8.309 Y44.829 E35.05766
G1 X5.566 Y45.700 E35.17729
G1 X3.822 Y45.847 E35.25008
G1 X3.603 Y45.847 E35.25915
G1 X0.754 Y45.449 E35.37879
G1 X-0.732 Y44.900 E35.44463
G1 X-11.212 Y40.094 E35.92397
G1 X-13.066 Y38.999 E36.01348
G1 X-37.850 Y20.646 E37.29562
G1 X-39.015 Y19.642 E37.35957
G1 X-45.458 Y13.199 E37.73839
G1 X-47.191 Y10.903 E37.85802
G1 X-48.229 Y8.219 E37.97765
G1 X-48.492 Y5.353 E38.09729
G1 X-47.960 Y2.526 E38.21692
G1 X-46.809 Y0.156 E38.32644
G1 X-32.826 Y-21.239 E39.38907
G1 F2700.000 E35.38907
G92 E0
G1 X22.605 Y22.180 F6000.000
G1 E4.00000 F2700.000
G1 X22.442 Y22.425 E4.01225 F900.000
G1 X22.005 Y22.970 E4.04130
G1 X21.560 Y23.639 E4.07469
G1 X20.478 Y25.153 E4.15204
G1 X19.198 Y26.865 E4.24096
G1 X18.895 Y27.168 E4.25874
G1 X18.515 Y26.605 E4.28700
G1 X17.970 Y25.728 E4.32991
G1 X15.996 Y22.767 E4.47788
G1 X15.027 Y21.362 E4.54883
G1 X14.494 Y20.508 E4.59067
G1 X14.380 Y20.281 E4.60124
G1 X14.619 Y19.883 E4.62050
G1 X14.955 Y19.098 E4.65601
G1 X15.381 Y18.247 E4.69560
G1 X16.472 Y16.168 E4.79320
G1 X17.457 Y14.198 E4.88478
G1 X17.796 Y13.516 E4.91645
G1 X18.000 Y13.006 E4.93928
G1 X18.228 Y12.663 E4.95638
G1 X18.349 Y12.300 E4.97229
G1 X18.873 Y11.252 E5.02102
G1 X17.867 Y11.252 E5.06284
G1 X17.430 Y11.143 E5.08155
G1 X16.745 Y11.143 E5.11006
G1 X12.545 Y10.605 E5.28607
G1 X11.961 Y10.488 E5.31087
G1 X11.415 Y10.488 E5.33355
G1 X10.869 Y10.379 E5.35668
G1 X9.992 Y10.379 E5.39317
G1 X9.992 Y10.718 E5.40726
G1 X9.385 Y11.447 E5.44670
G1 X7.283 Y13.549 E5.57028
G1 X6.834 Y13.549 E5.58894
G1 X6.005 Y13.667 E5.62374
G1 X5.036 Y13.883 E5.66504
G1 X2.853 Y14.101 E5.75622
G1 X1.864 Y14.321 E5.79835
G1 X0.229 Y14.539 E5.86692
G1 X-0.280 Y14.640 E5.88850
G1 X-0.799 Y14.640 E5.91008
G1 X-1.017 Y14.749 E5.92023
G1 X-1.803 Y14.749 E5.95289
G1 X-1.803 Y15.316 E5.97648
G1 X-2.279 Y16.269 E6.02077
G1 X-2.832 Y17.264 E6.06807
G1 X-3.264 Y18.242 E6.11253
G1 X-3.565 Y18.743 E6.13684
G1 X-3.876 Y19.210 E6.16015
G1 X-3.876 Y20.307 E6.20577
G1 X-3.762 Y21.104 E6.23923
G1 X-3.440 Y24.228 E6.36980
G1 X-3.440 Y25.217 E6.41093
G1 X-3.221 Y26.859 E6.47980
G1 X-3.221 Y27.441 E6.50400
G1 X-3.112 Y27.878 E6.52271
G1 X-3.112 Y28.382 E6.54367
G1 X-2.896 Y28.814 E6.56375
G1 X-2.410 Y29.300 E6.59233
G1 X-1.213 Y30.714 E6.66935
G1 X0.431 Y32.467 E6.76928
G1 X1.207 Y33.354 E6.81827
G1 X1.055 Y33.561 E6.82894
G1 X-1.593 Y32.398 E6.94917
G1 X-2.802 Y31.739 E7.00643
G1 X-3.903 Y31.298 E7.05573
G1 X-4.768 Y30.866 E7.09593
G1 X-5.531 Y30.533 E7.13056
G1 X-5.992 Y30.303 E7.15196
G1 X-6.389 Y30.171 E7.16937
G1 X-6.474 Y30.085 E7.17440
G1 X-6.656 Y29.631 E7.19474
G1 X-7.230 Y28.484 E7.24805
G1 X-7.477 Y28.113 E7.26658
G1 X-7.477 Y27.989 E7.27172
G1 X-7.630 Y27.683 E7.28598
G1 X-7.941 Y26.750 E7.32685
G1 X-8.602 Y24.561 E7.42192
G1 X-8.976 Y23.437 E7.47117
G1 X-9.010 Y23.404 E7.47314
G1 X-9.010 Y23.252 E7.47943
G1 X-9.849 Y21.935 E7.54437
G1 X-9.992 Y21.650 E7.55761
G1 X-9.992 Y21.162 E7.57791
G1 X-9.883 Y19.853 E7.63253
G1 X-9.883 Y11.918 E7.96244
G1 X-10.345 Y11.686 E7.98395
G1 X-10.547 Y11.485 E7.99580
G1 X-11.121 Y11.140 E8.02365
G1 X-11.656 Y10.713 E8.05210
G1 X-12.977 Y9.832 E8.11809
G1 X-14.607 Y8.636 E8.20215
G1 X-14.979 Y8.382 E8.22087
G1 X-15.365 Y8.189 E8.23881
G1 X-20.142 Y3.412 E8.51972
G1 X-20.580 Y2.536 E8.56042
G1 X-21.363 Y3.319 E8.60648
G1 X-21.871 Y3.726 E8.63353
G1 X-22.646 Y4.284 E8.67323
G1 X-23.536 Y5.063 E8.72239
G1 X-25.610 Y6.810 E8.83516
G1 X-27.463 Y8.444 E8.93786
G1 X-28.679 Y9.440 E9.00322
G1 X-28.988 Y9.749 E9.02138
G1 X-29.315 Y9.967 E9.03773
G1 X-29.400 Y10.052 E9.04270
G1 X-29.509 Y10.052 E9.04724
G1 X-29.742 Y10.284 E9.06091
G1 X-30.242 Y10.585 E9.08517
G1 X-31.519 Y11.473 E9.14984
G1 X-31.812 Y11.179 E9.16709
G1 X-32.249 Y10.852 E9.18977
G1 X-33.300 Y9.801 E9.25155
G1 X-34.390 Y8.601 E9.31896
G1 X-35.612 Y7.374 E9.39097
G1 X-36.709 Y6.392 E9.45220
G1 X-37.064 Y6.037 E9.47304
G1 X-36.114 Y5.630 E9.51602
G1 X-34.700 Y4.974 E9.58080
G1 X-33.273 Y4.426 E9.64435
G1 X-32.870 Y4.224 E9.66311
G1 X-32.433 Y4.115 E9.68181
G1 X-31.846 Y3.821 E9.70909
G1 X-31.740 Y3.821 E9.71353
G1 X-31.002 Y3.084 E9.75690
G1 X-29.579 Y1.442 E9.84721
G1 X-27.822 Y-0.431 E9.95400
G1 X-27.065 Y-1.404 E10.00527
G1 X-26.303 Y-2.161 E10.04992
G1 X-25.756 Y-2.816 E10.08539
G1 X-24.970 Y-3.603 E10.13164
G1 X-24.822 Y-3.825 E10.14274
G1 X-24.251 Y-3.725 E10.16681
G1 X-23.380 Y-3.508 E10.20413
G1 X-22.171 Y-3.288 E10.25524
G1 X-19.662 Y-2.742 E10.36201
G1 X-18.484 Y-2.528 E10.41177
G1 X-17.371 Y-2.196 E10.46005
G1 X-16.526 Y-2.090 E10.49548
G1 X-16.001 Y-1.880 E10.51898
G1 X-15.343 Y-1.749 E10.54687
G1 X-15.163 Y-1.749 E10.55437
G1 X-15.062 Y-1.715 E10.55878
G1 X-14.622 Y-1.405 E10.58114
G1 X-14.099 Y-1.091 E10.60651
G1 X-13.578 Y-0.674 E10.63427
G1 X-12.269 Y0.307 E10.70227
G1 X-11.177 Y1.187 E10.76057
G1 X-10.004 Y2.039 E10.82086
G1 X-9.336 Y2.707 E10.86011
G1 X-8.825 Y1.685 E10.90760
G1 X-8.481 Y0.305 E10.96673
G1 X-8.260 Y-0.668 E11.00824
G1 X-7.605 Y-2.852 E11.10301
G1 X-7.170 Y-4.813 E11.18651
G1 X-6.968 Y-5.421 E11.21317
G1 X-6.741 Y-5.988 E11.23856
G1 X-6.604 Y-6.535 E11.26202
G1 X-6.604 Y-6.686 E11.26828
G1 X-6.495 Y-6.904 E11.27842
G1 X-6.495 Y-7.755 E11.31379
G1 X-6.925 Y-7.755 E11.33167
G1 X-7.603 Y-8.026 E11.36204
G1 X-8.787 Y-8.669 E11.41804
G1 X-9.359 Y-8.955 E11.44464
G1 X-9.468 Y-8.955 E11.44918
G1 X-9.800 Y-9.121 E11.46461
G1 X-10.384 Y-9.355 E11.49075
G1 X-11.391 Y-9.696 E11.53497
G1 X-12.469 Y-10.019 E11.58175
G1 X-14.963 Y-10.995 E11.69307
G1 X-16.186 Y-11.440 E11.74718
G1 X-17.274 Y-11.766 E11.79444
G1 X-18.144 Y-12.091 E11.83304
G1 X-18.768 Y-12.299 E11.86039
G1 X-19.291 Y-12.560 E11.88466
G1 X-19.178 Y-13.240 E11.91334
G1 X-18.968 Y-13.872 E11.94101
G1 X-18.530 Y-15.624 E12.01612
G1 X-18.089 Y-17.056 E12.07841
G1 X-17.771 Y-18.540 E12.14150
G1 X-17.635 Y-18.813 E12.15420
G1 X-17.635 Y-19.441 E12.18030
G1 X-17.526 Y-19.987 E12.20343
G1 X-17.526 Y-20.766 E12.23584
G1 X-17.305 Y-22.276 E12.29929
G1 X-17.193 Y-23.738 E12.36024
G1 X-17.193 Y-24.233 E12.38081
G1 X-17.084 Y-24.669 E12.39951
G1 X-17.084 Y-25.082 E12.41665
G1 X-16.849 Y-25.199 E12.42755
G1 X-16.304 Y-25.526 E12.45400
G1 X-15.645 Y-25.855 E12.48461
G1 X-14.211 Y-26.744 E12.55477
G1 X-12.344 Y-27.842 E12.64481
G1 X-11.950 Y-28.105 E12.66449
G1 X-11.573 Y-27.225 E12.70429
G1 X-10.153 Y-24.378 E12.83656
G1 X-9.716 Y-23.395 E12.88130
G1 X-8.952 Y-21.874 E12.95203
G1 X-8.720 Y-21.293 E12.97806
G1 X-8.525 Y-21.001 E12.99263
G1 X-8.981 Y-20.637 E13.01686
G1 X-10.397 Y-19.660 E13.08838
G1 X-10.799 Y-19.358 E13.10931
G1 X-11.056 Y-19.230 E13.12126
G1 X-11.410 Y-18.876 E13.14205
G1 X-11.410 Y-18.459 E13.15941
G1 X-11.516 Y-17.820 E13.18633
G1 X-11.628 Y-16.243 E13.25205
G1 X-11.628 Y-15.816 E13.26982
G1 X-12.586 Y-14.858 E13.32613
G1 X-10.738 Y-14.858 E13.40295
G1 X-9.895 Y-14.753 E13.43829
G1 X-7.720 Y-14.536 E13.52917
G1 X-7.035 Y-14.422 E13.55801
G1 X-6.798 Y-14.422 E13.56789
G1 X-6.689 Y-14.313 E13.57431
G1 X-6.319 Y-14.313 E13.58966
G1 X-5.745 Y-14.121 E13.61485
G1 X-3.813 Y-13.583 E13.69823
G1 X-3.527 Y-13.440 E13.71152
G1 X-2.876 Y-13.440 E13.73857
G1 X-2.464 Y-13.714 E13.75914
G1 X-1.651 Y-13.985 E13.79479
G1 X-1.173 Y-13.985 E13.81468
G1 X-1.064 Y-14.094 E13.82109
G1 X-0.603 Y-14.094 E13.84024
G1 X-0.603 Y-14.419 E13.85374
G1 X-0.193 Y-14.583 E13.87209
G1 X0.379 Y-14.869 E13.89869
G1 X0.379 Y-15.597 E13.92898
G1 X0.204 Y-15.772 E13.93926
G1 X0.025 Y-16.399 E13.96636
G1 X-0.316 Y-17.423 E14.01123
G1 X-0.865 Y-18.635 E14.06654
G1 X-1.836 Y-21.333 E14.18577
G1 X-2.273 Y-22.649 E14.24340
G1 X-2.709 Y-23.850 E14.29652
G1 X-3.048 Y-24.864 E14.34099
G1 X-3.358 Y-25.485 E14.36985
G1 X-3.475 Y-26.068 E14.39457
G1 X-3.665 Y-26.353 E14.40880
G1 X-2.795 Y-27.554 E14.47045
G1 X-0.394 Y-30.610 E14.63204
G1 X0.374 Y-31.712 E14.68785
G1 X1.018 Y-32.564 E14.73228
G1 X2.038 Y-33.812 E14.79930
G1 X2.242 Y-34.219 E14.81818
G1 X2.543 Y-34.520 E14.83588
G1 X3.895 Y-34.520 E14.89212
G1 X4.358 Y-34.635 E14.91197
G1 X5.485 Y-34.738 E14.95901
G1 X5.864 Y-34.738 E14.97476 F900.000
G1 X14.901 Y-25.695 E15.50626
G1 X15.145 Y-25.533 E15.51846
G1 X15.225 Y-25.374 E15.52585
G1 X15.143 Y-25.129 E15.53656
G1 X14.705 Y-23.486 E15.60727
G1 X14.269 Y-21.951 E15.67360
G1 X13.377 Y-18.608 E15.81746
G1 X12.955 Y-17.021 E15.88573
G1 X12.630 Y-15.612 E15.94585
G1 X12.091 Y-13.780 E16.02525
G1 X11.738 Y-12.713 E16.07197
G1 X11.738 Y-12.537 E16.07929
G1 X11.498 Y-12.298 E16.09336
G1 X11.844 Y-11.606 E16.12553
G1 X12.226 Y-11.224 E16.14799
G1 X12.951 Y-10.395 E16.19375
G1 X13.156 Y-10.088 E16.20909
G1 X13.156 Y-9.967 E16.21414
G1 X13.372 Y-9.751 E16.22684
G1 X13.794 Y-9.022 E16.26188
G1 X14.109 Y-8.550 E16.28545
G1 X14.596 Y-8.306 E16.30811
G1 X15.358 Y-8.306 E16.33977
G1 X16.281 Y-8.198 E16.37841
G1 X17.370 Y-7.981 E16.42457
G1 X20.028 Y-7.649 E16.53593
G1 X21.315 Y-7.542 E16.58964
G1 X22.394 Y-7.326 E16.63539
G1 X23.326 Y-7.209 E16.67442
G1 X23.958 Y-7.209 E16.70072
G1 X24.504 Y-7.100 E16.72385
G1 X24.749 Y-7.100 E16.73404
G1 X24.967 Y-6.991 E16.74419
G1 X25.818 Y-6.991 E16.77956
G1 X25.818 Y-7.452 E16.79871
G1 X26.328 Y-7.962 E16.82868
G1 X26.992 Y-8.853 E16.87492
G1 X27.863 Y-9.826 E16.92919
G1 X30.594 Y-13.219 E17.11026
G1 X32.014 Y-14.857 E17.20040
G1 X32.436 Y-15.385 E17.22849
G1 X32.891 Y-15.840 E17.25524
G1 X33.001 Y-16.005 E17.26352
G1 X33.488 Y-15.729 E17.28677
G1 X33.871 Y-15.345 E17.30934
G1 X34.635 Y-14.690 E17.35117
G1 X34.880 Y-14.446 E17.36554
G1 X34.880 Y-14.379 E17.36832
G1 X35.118 Y-13.663 E17.39967
G1 X35.441 Y-12.153 E17.46388
G1 X35.559 Y-11.680 E17.48416
G1 X35.649 Y-11.423 E17.49549
G1 X35.649 Y-11.318 E17.49983
G1 X35.808 Y-10.842 E17.52069
G1 X36.253 Y-10.063 E17.55801
G1 X36.683 Y-8.988 E17.60614
G1 X37.111 Y-8.126 E17.64618
G1 X37.298 Y-7.566 E17.67070
G1 X35.656 Y-6.823 E17.74560
G1 X35.207 Y-6.598 E17.76650
G1 X32.998 Y-7.703 E17.86918
G1 X32.452 Y-7.921 E17.89361
G1 X32.130 Y-8.082 E17.90860
G1 X31.630 Y-8.082 E17.92936
G1 X31.293 Y-7.745 E17.94918
G1 X30.935 Y-7.148 E17.97811
G1 X30.512 Y-6.514 E18.00982
G1 X28.651 Y-3.881 E18.14388
G1 X28.107 Y-3.010 E18.18659
G1 X27.566 Y-2.253 E18.22524
G1 X27.134 Y-1.604 E18.25766
G1 X26.643 Y-0.928 E18.29241
G1 X25.430 Y-1.656 E18.35122
G1 X25.083 Y-1.887 E18.36854
G1 X24.705 Y-2.076 E18.38612
G1 X22.478 Y-2.076 E18.47869
G1 X22.222 Y-2.161 E18.48994
G1 X21.307 Y-2.390 E18.52912
G1 X18.378 Y-2.933 E18.65296
G1 X17.998 Y-3.058 E18.66961
G1 X17.826 Y-3.058 E18.67678
G1 X17.607 Y-3.167 E18.68693
G1 X15.534 Y-3.167 E18.77311
G1 X15.316 Y-3.276 E18.78326
G1 X14.465 Y-3.276 E18.81863
G1 X14.465 Y-2.852 E18.83627
G1 X13.085 Y-1.968 E18.90442
G1 X12.093 Y-1.197 E18.95666
G1 X9.701 Y0.439 E19.07714
G1 X8.498 Y1.310 E19.13888
G1 X6.093 Y2.950 E19.25987
G1 X5.610 Y3.313 E19.28502
G1 X5.403 Y3.519 E19.29715
G1 X4.861 Y3.880 E19.32423
G1 X5.141 Y4.803 E19.36434
G1 X5.736 Y4.803 E19.38908
G1 X6.354 Y4.680 E19.41527
G1 X8.195 Y4.246 E19.49394
G1 X10.595 Y3.811 E19.59533
G1 X11.698 Y3.590 E19.64208
G1 X12.703 Y3.367 E19.68491
G1 X13.461 Y3.150 E19.71767
G1 X13.924 Y3.058 E19.73732
G1 X14.399 Y3.058 E19.75704
G1 X14.726 Y2.949 E19.77139
G1 X14.950 Y2.949 E19.78068
G1 X15.365 Y3.115 E19.79927
G1 X16.882 Y3.873 E19.86981
G1 X19.817 Y5.181 E20.00338
G1 X20.570 Y5.611 E20.03944
G1 X21.262 Y5.957 E20.07160
G1 X22.151 Y6.292 E20.11109
G1 X22.462 Y6.448 E20.12556
G1 X22.664 Y6.649 E20.13741
G1 X23.071 Y7.361 E20.17151
G1 X23.732 Y8.353 E20.22106
G1 X24.257 Y9.194 E20.26227
G1 X24.615 Y9.915 E20.29576
G1 X24.716 Y10.017 E20.30173
G1 X24.545 Y10.445 E20.32092
G1 X24.331 Y11.089 E20.34913
G1 X23.900 Y12.058 E20.39321
G1 X23.136 Y14.027 E20.48103
G1 X22.698 Y15.012 E20.52585
G1 X22.361 Y15.912 E20.56581
G1 X22.145 Y16.561 E20.59423
G1 X21.918 Y17.128 E20.61961
G1 X21.814 Y17.543 E20.63740
G1 X21.563 Y18.050 E20.66092
G1 X21.563 Y18.442 E20.67723
